X: 58
T: No_21_Dancing_Song_from_the_South_God_(d).krn
N: Derived from No_21_Dancing_Song_from_the_South_God_(d).krn
%%abc-version 2.0
%%abcx-abcm2ps-target-version 5.9.1 (29 Sep 2008)
%%abc-creator hum2abc beta
%%abcx-conversion-date 2019/03/15 08:35:44
%%humdrum-veritas 1064127979
%%humdrum-veritas-data 99273398
%%linebreak <none>
%%barnumbers 0
L: 1/8
M: 3/4
K: G clef=bass
[K:clef=bass][M:3/4]z4z z/ F,/ ]|:  
A,3/A,/A,2F,F, ||  
[M:2/4]A,7/A,/ ||  
[M:3/4]F,3/E,/E,2D,C, | 
D,2z2A,3/A,/ ||  
[M:2/4]F,2E,2 | 
(3F,E,E, D,D, | 
D,2B,, z/ F,/ ||  
[M:3/4]D,3/D,/D,2D,D, ||  
[M:2/4]D,2B,, z/ F,/ ||  
[M:3/4]D,3/D,/D,2D,D, ||  
[M:2/4]D,2B,, z/ F,/ ||  
[M:3/4]D,3/D,/D,2D,D, ||  
[M:2/4]D,2D, z/ F,/ :|]  
[M:3/4]D,2D, zz2 |]  



